public/assets/img/kraken.svg

<svg width="24" height="24" viewBox="0 0 24 24" fill="none" xmlns="http://www.w3.org/2000/svg">
<path d="M12.1644 2C17.713 2 22.2101 6.47656 22.2101 12C22.2101 17.5234 17.713 22 12.1644 22C6.61573 22 2.11873 17.5234 2.11873 12C2.11873 6.47656 6.61573 2 12.1644 2Z" fill="#5741D9"/>
<path d="M11.9563 6.1818C13.0837 6.10145 14.2328 6.34248 15.2409 6.88192C16.7368 7.6624 17.9292 9.06266 18.4821 10.7154C18.7314 11.45 18.8615 12.219 18.8615 12.9995V15.8803C18.8615 15.9951 18.8615 16.1213 18.8398 16.2361C18.7748 16.5231 18.5797 16.787 18.3195 16.9133C18.1352 17.0051 17.9292 17.0166 17.745 16.9822C17.333 16.9018 17.0078 16.4886 17.0078 16.041C17.0078 15.1458 17.0078 14.2505 17.0078 13.3553C17.0187 13.1028 17.0187 12.8273 16.8886 12.6092C16.6826 12.196 16.1623 12.0009 15.7612 12.1731C15.4143 12.2993 15.165 12.6781 15.1542 13.0683C15.1542 13.9751 15.1542 14.8818 15.1542 15.7885C15.1542 15.9607 15.165 16.1328 15.1108 16.2935C15.0241 16.6149 14.7748 16.8674 14.4712 16.9592C14.0702 17.074 13.6149 16.8903 13.4197 16.5001C13.2788 16.2706 13.2897 15.9836 13.3005 15.7196C13.3005 14.8129 13.3005 13.9177 13.3005 13.0109C13.2897 12.5518 12.9319 12.1386 12.5092 12.0813C12.2273 12.0353 11.9346 12.1386 11.7287 12.3452C11.5444 12.5289 11.4468 12.7929 11.4468 13.0568V15.6852C11.4468 15.9033 11.4685 16.1328 11.3926 16.3394C11.2734 16.7182 10.9157 16.9936 10.5363 16.9822C10.146 17.0051 9.76662 16.7182 9.64738 16.3394C9.58234 16.1443 9.59318 15.9492 9.59318 15.7426C9.59318 14.8359 9.59318 13.9291 9.59318 13.0224C9.59318 12.5748 9.25713 12.1616 8.84521 12.0813C8.4658 12.0009 8.05388 12.196 7.85875 12.5633C7.78287 12.7125 7.73951 12.8847 7.73951 13.0568V16.0066C7.73951 16.2935 7.62027 16.5805 7.41431 16.7641C7.09994 17.051 6.59046 17.074 6.26525 16.81C6.02677 16.6378 5.88585 16.3394 5.88585 16.0295V13.0454C5.88585 11.9206 6.15685 10.7958 6.66634 9.79722C7.07826 8.98232 7.65279 8.25923 8.33572 7.68535C9.34385 6.7901 10.6338 6.26214 11.9563 6.1818Z" fill="white"/>
</svg>

<svg width="24" height="24" fill="none" xmlns="http://www.w3.org/2000/svg"><path d="M12.164 2C17.713 2 22.21 6.477 22.21 12s-4.497 10-10.046 10C6.616 22 2.12 17.523 2.12 12S6.616 2 12.164 2Z" fill="#5741D9"/><path d="M11.956 6.182a6.076 6.076 0 0 1 3.285.7c1.496.78 2.688 2.18 3.241 3.833.25.735.38 1.504.38 2.284v2.881c0 .115 0 .241-.022.356a1.01 1.01 0 0 1-.52.677.914.914 0 0 1-.575.07c-.412-.081-.737-.494-.737-.942v-2.686c.01-.252.01-.528-.12-.746-.205-.413-.726-.608-1.127-.436-.347.126-.596.505-.607.895v2.72c0 .173.011.345-.043.506a.96.96 0 0 1-.64.665.907.907 0 0 1-1.051-.459c-.141-.23-.13-.516-.12-.78v-2.71c-.01-.458-.368-.871-.79-.929a.908.908 0 0 0-.781.264 1.01 1.01 0 0 0-.282.712v2.628c0 .218.022.448-.054.654-.12.38-.477.655-.857.643-.39.023-.77-.264-.889-.643-.065-.195-.054-.39-.054-.596v-2.72c0-.448-.336-.861-.748-.942a.922.922 0 0 0-.986.482 1.1 1.1 0 0 0-.12.494v2.95c0 .287-.119.573-.325.757-.314.287-.824.31-1.149.046a.965.965 0 0 1-.38-.78v-2.985c0-1.124.272-2.25.781-3.248a6.74 6.74 0 0 1 1.67-2.112 6.03 6.03 0 0 1 3.62-1.503Z" fill="#fff"/></svg>
